X:1
T:Song for a guy
C:Elton John
M:C
L:1/8
Q:1/4=128
%%staves {RH LH}
K:C
% most of piano tunes have only 2 voices ..
V:RH
[C8E8]|zE FG- GEC2|[B,3E3][B,D]- [B,4D4]|zD EF- FED2|D8|
V:LH
[C,3G,3][C,G,]- [C,4G,4]|[C,3G,3][C,G,]- [C,4G,4]|[B,,3G,3][B,,G,]- [B,,4G,4]|\
[B,,3G,3][B,,G,]- [B,,4G,4]|[_B,,3F,3][B,,F,]- [B,,4F,4]|

